public/svgs/settings.svg

<svg height="15" viewBox="0 0 15 15" width="15" xmlns="http://www.w3.org/2000/svg"><path d="m9.55 14.2357143c-.17873729-.0005616-.34677906-.0852441-.45357143-.2285714l-1.03571428-1.3892858c-.48705889.0660169-.98079826.0660169-1.46785715 0l-1.07142857 1.3821429c-.16952516.2180861-.47262533.2802216-.71428571.1464286l-2.30714286-1.3607143c-.24760122-.1444677-.348699-.4508246-.23571429-.7142857l.68571429-1.6c-.29202032-.3911734-.53211504-.81854197-.71428571-1.2714286l-1.71785715-.21785714c-.29043856-.02731874-.51366936-.26902381-.51785714-.56071429v-2.67857143c.00132165-.28499837.21369041-.52486811.49642857-.56071428l1.725-.18214286c.09404541-.2460873.20625955-.4848408.33571429-.71428571.12336884-.20893689.26058009-.40938464.41071428-.6l-.66428571-1.575c-.11176594-.26523539-.00741702-.57214397.24285714-.71428572l2.325-1.32142857c.24334746-.13224095.54679296-.06700017.71428572.15357143l1.02142857 1.36071428c.4999693-.06961519 1.00717356-.06961519 1.50714285 0l1.05-1.34642857c.17238537-.2265911.48721971-.28802219.73214286-.14285714l2.31428573 1.35c.2476012.14446773.348699.45082463.2357143.71428571l-.6607143 1.55714286c.3071482.4009999.5582644.84195509.7464286 1.31071429l1.6892857.21785714c.2813215.03748194.4917732.27690885.4928571.56071429v2.68214285c-.0015358.28423894-.2142476.52296588-.4964286.55714286l-1.7178571.20357143c-.0920189.22497462-.1994157.44334795-.3214286.65357143-.1293174.21927844-.2737127.42930794-.4321428.62857144l.65 1.6071428c.1141004.2642762.0109879.5720749-.2392857.7142858l-2.32857147 1.3285714c-.08695589.0405235-.18295046.0577533-.27857143.05zm-1.175-2.3892857 1.21428571 1.6285714 2.09999999-1.2-.7821428-1.8642857.1428571-.1678572c.185315-.2173418.3514146-.45035925.4964286-.69642853.1415972-.23862453.2611398-.48966394.3571428-.75l.0785715-.20357143 2-.23571428v-2.41428572l-1.9892858-.25714285-.0714285-.20714286c-.1930084-.53738472-.4809065-1.03576291-.85-1.47142857l-.1392857-.16785715.8035714-1.83928571-2.09285716-1.21785714-1.20357143 1.59285714-.225-.03928571c-.56089491-.10179598-1.13553366-.10179598-1.69642857 0l-.21785714.03571428-1.18928571-1.61071428-2.09642858 1.19642857.77857143 1.86071428-.13928571.16785715c-.17816946.20568967-.33940949.42545387-.48214286.65714285-.14080669.24773958-.260285.50700751-.35714286.775l-.075.20714286-2.025.25357143v2.41428571l2.01428572.25714286.075.20714286c.19223269.52017819.47250956 1.00341416.82857143 1.42857144l.13928571.1678571-.80714286 1.8821429 2.08571429 1.2178571 1.23571429-1.625.21785714.0392857c.54817825.0963638 1.10896461.0963638 1.65714286 0zm-1.02142857-2.91785717h-.05c-.7370134-.01854449-1.39016361-.47954763-1.65450527-1.16777444s-.08773609-1.46793159.44736241-1.9750827c.4644709-.48744522 1.15996035-.67890163 1.80846026-.49783832.64849991.18106332 1.14421881.70510902 1.28900293 1.36266024.14478411.65755123-.08498558 1.34133996-.59746319 1.77803522-.33512919.31942868-.77988463.49835328-1.24285714.5zm0-2.93214286c-.58929979.02378513-1.0572572.50399739-1.06580383 1.09371506-.00854664.58971767.44529796 1.08328938 1.03366097 1.12414208.29405749.00779169.57919727-.10138345.79285714-.30357142.44286083-.4225199.46042996-1.12368792.03928572-1.56785715-.2102668-.21768711-.50093602-.33912225-.80357143-.33571428z" fill="#757c92"/></svg>

<?xml version="1.0" encoding="UTF-8"?>
<svg width="15px" height="15px" viewBox="0 0 15 15" version="1.1" xmlns="http://www.w3.org/2000/svg" xmlns:xlink="http://www.w3.org/1999/xlink">
    <!-- Generator: Sketch 63.1 (92452) - https://sketch.com -->
    <desc>Created with Sketch.</desc>
    <g id="Page-1" stroke="none" stroke-width="1" fill="none" fill-rule="evenodd">
        <g id="Home-menu" transform="translate(-30.000000, -127.000000)" fill="#757C92" fill-rule="nonzero">
            <g id="settings" transform="translate(30.000000, 127.000000)">
                <path d="M9.55,14.2357143 C9.37126271,14.2351527 9.20322094,14.1504702 9.09642857,14.0071429 L8.06071429,12.6178571 C7.5736554,12.683874 7.07991603,12.683874 6.59285714,12.6178571 L5.52142857,14 C5.35190341,14.2180861 5.04880324,14.2802216 4.80714286,14.1464286 L2.5,12.7857143 C2.25239878,12.6412466 2.151301,12.3348897 2.26428571,12.0714286 L2.95,10.4714286 C2.65797968,10.0802552 2.41788496,9.65288663 2.23571429,9.2 L0.517857143,8.98214286 C0.227418581,8.95482412 0.00418778482,8.71311905 0,8.42142857 L0,5.74285714 C0.00132165357,5.45785877 0.213690405,5.21798903 0.496428571,5.18214286 L2.22142857,5 C2.31547398,4.7539127 2.42768812,4.5151592 2.55714286,4.28571429 C2.6805117,4.0767774 2.81772295,3.87632965 2.96785714,3.68571429 L2.30357143,2.11071429 C2.19180549,1.8454789 2.29615441,1.53857032 2.54642857,1.39642857 L4.87142857,0.075 C5.11477603,-0.0572409548 5.41822153,0.00799982877 5.58571429,0.228571429 L6.60714286,1.58928571 C7.10711216,1.51967052 7.61431642,1.51967052 8.11428571,1.58928571 L9.16428571,0.242857143 C9.33667108,0.0162660431 9.65150542,-0.0451650462 9.89642857,0.1 L12.2107143,1.45 C12.4583155,1.59446773 12.5594133,1.90082463 12.4464286,2.16428571 L11.7857143,3.72142857 C12.0928625,4.12242847 12.3439787,4.56338366 12.5321429,5.03214286 L14.2214286,5.25 C14.5027501,5.28748194 14.7132018,5.52690885 14.7142857,5.81071429 L14.7142857,8.49285714 C14.7127499,8.77709608 14.5000381,9.01582302 14.2178571,9.05 L12.5,9.25357143 C12.4079811,9.47854605 12.3005843,9.69691938 12.1785714,9.90714286 C12.049254,10.1264213 11.9048587,10.3364508 11.7464286,10.5357143 L12.3964286,12.1428571 C12.510529,12.4071333 12.4074165,12.714932 12.1571429,12.8571429 L9.82857143,14.1857143 C9.74161554,14.2262378 9.64562097,14.2434676 9.55,14.2357143 Z M8.375,11.8464286 L9.58928571,13.475 L11.6892857,12.275 L10.9071429,10.4107143 L11.05,10.2428571 C11.235315,10.0255153 11.4014146,9.79249785 11.5464286,9.54642857 C11.6880258,9.30780404 11.8075684,9.05676463 11.9035714,8.79642857 L11.9821429,8.59285714 L13.9821429,8.35714286 L13.9821429,5.94285714 L11.9928571,5.68571429 L11.9214286,5.47857143 C11.7284202,4.94118671 11.4405221,4.44280852 11.0714286,4.00714286 L10.9321429,3.83928571 L11.7357143,2 L9.64285714,0.782142857 L8.43928571,2.375 L8.21428571,2.33571429 C7.6533908,2.23391831 7.07875205,2.23391831 6.51785714,2.33571429 L6.3,2.37142857 L5.11071429,0.760714286 L3.01428571,1.95714286 L3.79285714,3.81785714 L3.65357143,3.98571429 C3.47540197,4.19140396 3.31416194,4.41116816 3.17142857,4.64285714 C3.03062188,4.89059672 2.91114357,5.14986465 2.81428571,5.41785714 L2.73928571,5.625 L0.714285714,5.87857143 L0.714285714,8.29285714 L2.72857143,8.55 L2.80357143,8.75714286 C2.99580412,9.27732105 3.27608099,9.76055702 3.63214286,10.1857143 L3.77142857,10.3535714 L2.96428571,12.2357143 L5.05,13.4535714 L6.28571429,11.8285714 L6.50357143,11.8678571 C7.05174968,11.9642209 7.61253604,11.9642209 8.16071429,11.8678571 L8.375,11.8464286 Z M7.35357143,8.92857143 L7.30357143,8.92857143 C6.56655803,8.91002694 5.91340782,8.4490238 5.64906616,7.76079699 C5.3847245,7.07257018 5.56133007,6.2928654 6.09642857,5.78571429 C6.56089947,5.29826907 7.25638892,5.10681266 7.90488883,5.28787597 C8.55338874,5.46893929 9.04910764,5.99298499 9.19389176,6.65053621 C9.33867587,7.30808744 9.10890618,7.99187617 8.59642857,8.42857143 L8.59642857,8.42857143 C8.26129938,8.74800011 7.81654394,8.92692471 7.35357143,8.92857143 L7.35357143,8.92857143 Z M7.35357143,5.99642857 C6.76427164,6.0202137 6.29631423,6.50042596 6.2877676,7.09014363 C6.27922096,7.6798613 6.73306556,8.17343301 7.32142857,8.21428571 C7.61548606,8.2220774 7.90062584,8.11290226 8.11428571,7.91071429 L8.11428571,7.91071429 C8.55714654,7.48819439 8.57471567,6.78702637 8.15357143,6.34285714 C7.94330463,6.12517003 7.65263541,6.00373489 7.35,6.00714286 L7.35357143,5.99642857 Z" id="Shape"></path>
            </g>
        </g>
    </g>
</svg>
